X:54
T:Pollonesse 1832-54
O:Södermanland
R:Slängpolska
B:Notbok 1832 från Sörmlands museum
N:[[http://www.sormlandsmusikarkiv.se/noter/1832/1832.html]]
Z:Jonas Brunskog
M: 3/4
L: 1/16
K: A
|:Acef d4 c4 | A2>f2 d2>e2 c2>d2 | e2a2 f2ed c2A2 | cABG AGAB cABG |
Acef d4 c4 | A2>f2 d2>e2 c2>d2 | e2a2 f2ed c2A2 | cBAG B4 A4 :|
|:A2AB c2cA BGBG | A2AB cABG G2A2 | A2AB c2cA BGBG | A2AB cABG G2A2 |
Acef d4 c4 | A2>f2 d2>e2 c2>d2 | e2a2 f2ed c2A2 | cBAG B4 A4:|

